X: 1641
T: Kangaroo Barn Dance
C:Paula Zeloff (?) & Laura Lemon (1866-1924),
B: australian traditional tunes wiki
M:4/4
L:1/8
R: Barn Dance
Q: 1/4=100
K:C
V:1 
(3EF^F|"C"G>e d>c G>^F G>^G|"Dm"A>f e>d A>^G A>^A|"G7"B2a2a2a2|"C"a>g ^f>ag2 (3EF^F|
"C"G>e d>c G>^F G>^G|"Dm"A>f e>d A>^G A>^A|"G7"B2a2a2g2|(3bag (3fed"C"c2:|
|:(3EF^F|"C"G>e G>^G "F"A>f A>G|"C"G<eG4 (3EF^F|G>e c>G "D7"^F>e d>A|"C"c2"G"B2"Dm"A2"G"_A2|
"C"G>e G>^G "F"A>f A>G|"C"G<eG2-G>^F G>^G|"Dm"A>^G A>d "G7"B>A G>d|1"C"c6:|2"C"c6z2||
|:"F"C4F2-F>C|"Bb"D>F E>D"F"C4|"Bb"D>F B>d "F" c>A G>F|"G7"G>=B e>d "C7"(3c_BG (3ED_D|
"F"C4F2-F>C|"Bb"D>F E>D"F"C4|"Bb"D>F B>d "F" c>A G>F|"G7"(3DEF "C7"E>G "F"F4:|
|:{a}"Dm"a>a g>f "A7"e4|{A}g>g f>e "Dm"d4|"Bb"(3d^cd (3fed "F"=c>d e>f|"G7"a>g f>d "C7"g4|
{A}"Dm"a>a g>f "A7"e4|{A}g>g f>e "Dm"d4|"Bb"(3d^cd (3fed "F"=c>d e>f| "C7"a>g e>c "F"f4:|
% abcbook-tune_id 6342d53a6140df19632638ce


% abcbook-boost 0
% abcbook-tablature 
% abcbook-transpose 
% abcbook-lastupdated 1665324375570
% abcbook-soundfonts 
% abcbook-repeats 1
% NFF Book 2017

